X:1
T:Nights of Gladness, 2nd change
R:Quadrille Sets
M:2/4
L:1/8
B:Roche - Collection of Traditional Irish Music, vol. 3 (1927, No. 196)
Z:AK/Fiddler's Companion
K:G
GB/d/ g-g|g3g|fece|d3B|ddBd ccA>B|
cAGF|G2G!fermata!||"1st & 3rd"D|GG A(B/c/)|dd/c/ AB/c/|
d(B/G/ A/)B/A/G/|E3 D|GG A(B/c/)|dd/c/ AB/c/|dc/A/ (GF)|G3 (B/c/)|
dg dc/B/|cd c(D/E/)|GA {c}B/A/B/d/|A3 (d/c/)|
BA/B/ cB/c/|dd/c/ AB/c/|dc/A/ (GF)|G3 z!D.C.!||
M:6/8
L:1/8
"2nd & 4th"f|a2-a A2-B|(d2e) (f2f)|(e2e) (d2d)|d3 z2f|
(g2g) (f2e)|(f2d) (d2f)|(a2f) (e2d)|e3 z2f|
(g2g) (f2e)|(f2d) (d2f)|(a2f) (e2d)|b3 z2b|
a2-a (A2B)|(d2e) (f2f)|(e2e) (d2d)|(d3 d2)z!D.C.!||

